X:2417
T:O Colann Ec Shee 
N:See also KV31. 
C:Noted by Mrs Clague from her parents housekeeper Ellen Costain.
C:Traditional
O:Isle of Man
Z:Journal of Folk Song Society Vol VII, No. 29.
B:Kiaull Vannin #417
M:4/2 
L:1/2
K:D
A|AA Ad|BG FA|AA EA|BB !fermata!AA||FE DD|EG GA|E DD|

